X:180
T: West the Hill [HP]
T: Siar an Cnoc
S: B.Breathnach:"Ceol Rince na hEireann" III/228
Z: B.Black
L: 1/8
M: 4/4
R: hornpipe
K: G
GE|D3 E (3GAG EG|ABcA BG (3GFG|ABcd eBdB|ABAG EAGE|
DB,DE (3GAG (3EFG|ABcd gfgd|(3BdB GB ADFA|GBAF G2 :|
ef|gfed (3efe de|gedB d2 dB|cBcd gedB|ABAG EAGE|
DB,DE (3GAG (3EFG|ABcd gfgd|(3BdB GB ADFA|GBAF G2 :|
